X: 239
T: Who Are You?
B: O'Neill's 239
N: "With spirit"
N: "Collected by F.O'Neill"
Z: 1997 by John Chambers <jc@trillian.mit.edu>
M: 2/4
L: 1/8
K:G
G \
| AA (Bd) | (cB) AG | (ED/)E/ GG | G3 (B/d/) \
| ee dg | (B>A G)(B/c/) | dd (e/>d/)B/G/ | A3 d |
| ee dg | (B>A G)(B/d/) | cB (TAB/)G/ | E3 (F/G/) \
| AA Bd | cB AG | E(D/E/) GG | G3 ||


